src/renderer/assets/svg/icon-plus.svg

<svg width="21" height="21" viewBox="0 0 21 21" fill="none" xmlns="http://www.w3.org/2000/svg">
<path d="M10.1893 0.0340576C4.66933 0.0340576 0.189331 4.51406 0.189331 10.0341C0.189331 15.5541 4.66933 20.0341 10.1893 20.0341C15.7093 20.0341 20.1893 15.5541 20.1893 10.0341C20.1893 4.51406 15.7093 0.0340576 10.1893 0.0340576ZM14.1893 11.0341H11.1893V14.0341C11.1893 14.5841 10.7393 15.0341 10.1893 15.0341C9.63933 15.0341 9.18933 14.5841 9.18933 14.0341V11.0341H6.18933C5.63933 11.0341 5.18933 10.5841 5.18933 10.0341C5.18933 9.48406 5.63933 9.03406 6.18933 9.03406H9.18933V6.03406C9.18933 5.48406 9.63933 5.03406 10.1893 5.03406C10.7393 5.03406 11.1893 5.48406 11.1893 6.03406V9.03406H14.1893C14.7393 9.03406 15.1893 9.48406 15.1893 10.0341C15.1893 10.5841 14.7393 11.0341 14.1893 11.0341Z" fill="#50E3C2"/>
<path d="M11.1893 11.0341H14.1893C14.7393 11.0341 15.1893 10.5841 15.1893 10.0341C15.1893 9.48406 14.7393 9.03406 14.1893 9.03406H11.1893V6.03406C11.1893 5.48406 10.7393 5.03406 10.1893 5.03406C9.63933 5.03406 9.18933 5.48406 9.18933 6.03406V9.03406H6.18933C5.63933 9.03406 5.18933 9.48406 5.18933 10.0341C5.18933 10.5841 5.63933 11.0341 6.18933 11.0341H9.18933V14.0341C9.18933 14.5841 9.63933 15.0341 10.1893 15.0341C10.7393 15.0341 11.1893 14.5841 11.1893 14.0341V11.0341Z" fill="white"/>
</svg>

<svg xmlns="http://www.w3.org/2000/svg" width="21" height="21" fill="none" viewBox="0 0 21 21"><path fill="#50E3C2" d="M10.19.034c-5.52 0-10 4.48-10 10s4.48 10 10 10 10-4.48 10-10-4.48-10-10-10m4 11h-3v3c0 .55-.45 1-1 1s-1-.45-1-1v-3h-3c-.55 0-1-.45-1-1s.45-1 1-1h3v-3c0-.55.45-1 1-1s1 .45 1 1v3h3c.55 0 1 .45 1 1s-.45 1-1 1"/><path fill="#fff" d="M11.19 11.034h3c.55 0 1-.45 1-1s-.45-1-1-1h-3v-3c0-.55-.45-1-1-1s-1 .45-1 1v3h-3c-.55 0-1 .45-1 1s.45 1 1 1h3v3c0 .55.45 1 1 1s1-.45 1-1z"/></svg>
